dist/svg/u1F445.svg

<?xml version="1.0" encoding="UTF-8"?><svg id="Layer_1" xmlns="http://www.w3.org/2000/svg" viewBox="0 0 40 40"><g><path d="M2.28827,16.00401c-.70902-.72097-.71673-1.87488-.01742-2.60527L10.14767,5.17184c2.11031-2.2041,5.59543-2.31696,7.84392-.25401l.84435,.77467c.65847,.60413,1.66966,.60413,2.32813,0l.84435-.77467c2.2485-2.06295,5.73361-1.95009,7.84392,.25401l7.87682,8.2269c.69931,.73039,.69159,1.8843-.01742,2.60527l-17.32454,17.12567L2.28827,16.00401Z" style="fill:#e32939;"/><path d="M32.78109,15.52912c0,1.68373-5.69192,3.04867-12.71325,3.04867s-12.71325-1.36493-12.71325-3.04867,5.69192-4.26503,12.71325-4.26503,12.71325,2.58129,12.71325,4.26503Z" style="fill:#731019;"/><path d="M10.91776,14.12367H29.2179c1.68304,0,3.04946,1.36642,3.04946,3.04946v7.18562c0,6.7331-5.46642,12.19952-12.19952,12.19952h-.00002c-6.7331,0-12.19952-5.46642-12.19952-12.19952v-7.18562c0-1.68304,1.36642-3.04946,3.04946-3.04946Z" style="fill:#f56570;"/></g><rect width="40" height="40" style="fill:none;"/></svg>

<svg id="Layer_1" data-name="Layer 1" xmlns="http://www.w3.org/2000/svg" viewBox="0 0 40 40"><defs><style>.cls-1{fill:#e32939;}.cls-2{fill:#731019;}.cls-3{fill:#f56570;}.cls-4{fill:none;}</style></defs><path class="cls-1" d="M2.288,16A1.871,1.871,0,0,1,2.271,13.4l7.877-8.227a5.61,5.61,0,0,1,7.844-.254l.844.775a1.722,1.722,0,0,0,2.328,0l.844-.775a5.61,5.61,0,0,1,7.844.254L37.729,13.4A1.871,1.871,0,0,1,37.712,16L20.387,33.13Z"/><path class="cls-2" d="M32.781,15.529c0,1.684-5.692,3.049-12.713,3.049S7.355,17.213,7.355,15.529s5.691-4.265,12.713-4.265S32.781,13.845,32.781,15.529Z"/><path class="cls-3" d="M10.918,14.124h18.3a3.049,3.049,0,0,1,3.049,3.049v7.186a12.2,12.2,0,0,1-12.2,12.2h0a12.2,12.2,0,0,1-12.2-12.2V17.173a3.049,3.049,0,0,1,3.049-3.049Z"/><rect class="cls-4" width="40" height="40"/></svg>
